X: 412
T: Presevka
O: Serbia
F: http://www.youtube.com/watch?v=2s3fTlYnIsk
M: 2/4
L: 1/8
K: C
"C"E3/2E/ "F"AA|"C"G3/2^F/ GE|"G"F3/2E/ DD|"C"EE E2::
K:Em
"Em"E/F/G/A/ B3/2B/|BB B2|"Am"A3/2A/ AA|"Em"BB B2::
K:C
"C"E3/2E/ "F"AA|"C"G3/2^F/ GE|"G"F3/2E/ DD|"C"EE E2::
"Dm"B/c/d/e/ ff|ff g/f/e/d/|"Am"e3/2e/ "Dm"fd|"C"CC C2:|
W:
W: http://www.folkloretanznoten.de/



